X:8
T:Pine Stump Junction
C:Mike Mahar
L:1/8
Q:1/4=150
M:4/4
K:D
A,B, |: D2 D2 FE DB, | A,2 A,B, D2 A,B, | D2 D2 FE D2 | E6 A,B, | D2 D2 FE DB, | \
A,2 A,B, D2 A,B, | D2 D2 FE DE |1 D6 A,B, :|2 D6 FG |
|: A2 A2 BA FE | D2 DE F2 FG | A2 A2 dB A2 | E6 FG
| A2 A2 BA FE | D2 DB, A,2 A,B, | D2 D2 FE DE |1 D6 FG :|2 D8 |]

